src/16/panel/veracrypt-panel.svg

<svg xmlns="http://www.w3.org/2000/svg" width="16" height="16" version="1.1">
 <defs>
  <style id="current-color-scheme" type="text/css">
   .ColorScheme-Text { color:#dfdfdf; } .ColorScheme-Highlight { color:#4285f4; }
  </style>
 </defs>
 <path style="fill:currentColor;opacity:0.3" class="ColorScheme-Text" d="M 1 1 L 4.6074219 13.976562 L 4.8378906 13.224609 L 6.1347656 8.0625 L 4.25 1 L 1 1 z M 7.7402344 13.970703 C 7.7373459 13.983236 7.7372776 13.987414 7.734375 14 L 7.75 14 L 7.7402344 13.970703 z"/>
 <path d="M 8.89575,8.004 6.14975,8 4.83725,13.224 4.59975,14 l 3.1354,-6e-6 c 1.3713,-5.946 1.1609,-5.9965 1.1609,-5.9965 z" style="fill:currentColor;opacity:0.15" class="ColorScheme-Text"/>
 <path d="m 8.09975,1 -1.9495,7 1.6,6 h 7.25 l -1.5,-3 h -3.25 l -0.75,-3 1,-4 h 3 l 1.5,-3 z" style="fill:currentColor" class="ColorScheme-Text"/>
</svg>

<svg xmlns="http://www.w3.org/2000/svg" width="16" height="16"><defs><style id="current-color-scheme" type="text/css">.ColorScheme-Text{color:#bebebe}</style></defs><path class="ColorScheme-Text" d="M1 1l3.607 12.977.23-.752 1.298-5.162L4.25 1H1zm6.74 12.97l-.006.03h.016l-.01-.03z" fill="currentColor" opacity=".3"/><path d="M8.896 8.004L6.15 8l-1.313 5.224L4.6 14h3.135c1.371-5.946 1.161-5.997 1.161-5.997z" class="ColorScheme-Text" fill="currentColor" opacity=".15"/><path d="M8.1 1L6.15 8l1.6 6H15l-1.5-3h-3.25L9.5 8l1-4h3L15 1z" class="ColorScheme-Text" fill="currentColor"/></svg>
